X: 65
T:Une cigale
O:France
R:Ronde
Z:Transcrit et/ou corrig? par Michel BELLON - 2005-09-10
Z:Pour toute observation mailto:galouvielle@free.fr
M:2/4
L:1/8
Q:1/4=116
K:Cmaj
Z8 S |: [P:A] c2 de | d2G2 | cd ec | d4 :| 
w:U-ne ci-ga-le, le beau temps pas-s? le beau temps pas-s?
[P:B] dd dd | gf ed | c2c2 | [P:Intro]dd dd gf ed | c4 S |]
w:u-ne ci-ga-le, le beau temps pas-s? n'a rien gar-d?.
<end>
<start>
